X:1
T:Title
%%score 1 ( 2 3 )
L:1/8
Q:1/4=107
M:4/4
K:D
V:1 treble nm="Grand Piano, Soprano"
V:2 bass nm="Choir Pad, Cristóbal, D. B. Way, 1878"
V:3 bass 
V:1
 [DF][EG] [FA]2 [FA]2 [FA]2 | [FA]2 [GB]2 [FA]2 [DF]2 | [FA]2 [Fd]2 [Fd]2 [Ac]2 | [GB]2 [FA]6 | %4
w: By~D.~B.~Way,~1878 * * * *||||
 [FA]2 [GB]2 [GB]2 [DG]2 | [GB]2 [FA]2 [FA]2 [DF]2 | [Fd]2 [Ec]2 [Ec]2 [GB]2 | [Gc]2 [Fd]6 | %8
w: ||||
 [DF][EG] [FA]2 [DF][EG] [FA]2 | [GB][FA] [DF]6 | [CE][DF] [EG]2 [FA][EG] [CE]2 | [EG][DF] [CE]6 | %12
w: ||||
 [DF][EG] [FA]2 [FA][FA] [GB]2 | [Gc]>[Gc] [Fd]6 | [Ac][GB] [FA]2 [FA][EG] [DF]2 | [CE][CE] D6- | %16
w: ||||
 D2 z2 z4 |] %17
w: |
V:2
 [D,A,]2 [D,D]2 [D,D]2 [D,D]2 | [D,D]2 [D,D]2 [D,D]2 [D,A,]2 | [D,A,]2 [D,A,]2 [D,A,]2 [D,A,]2 | %3
 B,C [D,D]6 | [D,D]2 [G,D]2 [G,D]2 [G,B,]2 | [G,D]2 [D,D]2 [D,D]2 [D,A,]2 | %6
 [D,A,]2 [A,,A,]2 [A,,A,]2 [A,,A,]2 | [A,,A,]2 [D,A,]6 | [D,A,]2 [D,D]2 [D,A,][D,A,] [D,D]2 | %9
 [D,D][D,D] [D,A,]6 | [A,,A,]2 [A,,A,]2 [A,,A,][A,,A,] [A,,A,]2 | [A,,A,][A,,A,] [A,,A,]6 | %12
 [D,A,]2 [D,D]2 [D,D][D,D] [G,D]2 | [E,A,]>[E,A,] [D,A,]6 | [D,D]2 [D,D]2 [D,D][G,B,] A,2 | %15
 [A,,G,][A,,G,] [D,F,]6- | [D,F,]2 z2 z4 |] %17
V:3
 x8 | x8 | x8 | D,2 z2 z4 | x8 | x8 | x8 | x8 | x8 | x8 | x8 | x8 | x8 | x8 | x8 | x8 | x8 |] %17

